svg/u1f35a.svg

<svg viewBox="0 0 128 128" xmlns="http://www.w3.org/2000/svg">
  <path d="M83.49,99.04c-1.82,0.36-44.99,5.83-44.99,5.83s-0.91,7.65,0.36,10.2c1.27,2.55,9.47,8.38,24.95,8.38 s24.04-4.92,25.32-7.83s-0.55-15.3-0.55-15.3L83.49,99.04z" fill="#77A3AB"/>
  <path d="M34.07,42.84L4.68,56.45c0,0,2.35,27.69,20.73,42.85c26.45,21.81,66.05,15.31,84.3-6.03 c16.66-19.48,13.61-45.32,13.61-45.32L34.07,42.84z" fill="#A7D0D6"/>
  <path d="M3.95,50.5c-0.82,11.87,11,26.38,59.73,26.93c50.82,0.57,68.83-24.46,57.45-37.54 c-11.38-13.08-39.06-14.6-58.21-14.41S5.28,31.23,3.95,50.5z" fill="#77A3AC"/>
  <path d="M10.36,55.34c0,0-0.53-2.47,0.33-5.05c0.86-2.58,2.4-3.33,2.62-4.16c0.22-0.83-1.89-5.22,1.67-10.99 s5.87-4.55,6.85-5.77s0.93-5.34,5.35-9.27s8.47-3.56,8.47-3.56s1.97-5.16,6.75-7.12S52,8.67,52,8.67s4.3-3.93,10.32-4.05 c6.02-0.12,7.74,1.6,9.09,1.72c1.35,0.12,4.54-1.47,10.19,0.61c5.65,2.09,5.73,5.26,7,5.77c1.27,0.51,4.67-0.49,9.83,3.68 s4.31,6.09,5.04,6.88c0.72,0.79,5.57,0.82,8.23,7.61c1.96,5,0.91,8.67,1.11,9.21c0.2,0.54,2.98,3.43,4.18,6.39 c1.11,2.76,1.6,6.63,1.6,6.63s-2.58,4.52-8.83,8.63c-6.61,4.35-80.84,4.54-85.76,2.97C15.5,62.03,10.36,55.34,10.36,55.34z" fill="#CDCBC0"/>
  <path d="M18.47,47.85c0,0-0.55-6.18,1.11-9.58c2.33-4.79,6.88-5.28,6.88-5.28s0.51-5.46,4.42-8.47 c4.79-3.68,6.63-2.7,8.23-4.18c1.6-1.47,2.58-4.05,6.51-5.77s7.12-0.61,8.47-1.23s3.51-3.14,7.81-3.43 c5.53-0.37,5.89,1.77,9.06,2.11c2.25,0.24,3.93-1.09,8.72,0.38c4.79,1.47,4.95,4.37,6.47,5.36c1.52,0.99,5.27,0.08,9.33,3.19 c3.68,2.82,3.64,5.43,4.67,6.51c1.02,1.08,4.05,1.47,6.26,7.25c1.84,4.81,0.48,6.23,0.98,7.74c0.5,1.51,3.24,3.09,4.91,7.61 c2.09,5.65,1.47,8.6,1.47,8.6S103.7,72.07,59,71.55c-32.18-0.37-43.72-11.54-43.72-11.54s-0.49-6.02,0.74-8.35 S18.47,47.85,18.47,47.85z" fill="#FFFFFF"/>
  <path d="M61.17,68.25c0.99,2.23,4.89,2.6,8.17-1.07c2.94-3.3,1.22-8.38-1.93-7.95 c-2.87,0.39-1.93,3.37-3.3,4.51C62.74,64.88,60.31,66.31,61.17,68.25z" fill="#D4D4D4"/>
  <path d="M76.5,54.64c0.85,1.82,5.95,1.43,7.88-1.93c1.93-3.37,1.65-8.29-1.15-8.24 c-3.65,0.07-2.29,3.8-3.58,4.94C78.36,50.55,75.07,51.56,76.5,54.64z" fill="#D4D4D4"/>
  <path d="M96.2,36.08c-2.1,0.68-1,3.44-1.86,5.3c-0.86,1.86-3.15,3.94-1.36,5.52c1.79,1.58,5.87-1,6.45-4.94 C99.99,38.02,98.42,35.37,96.2,36.08z" fill="#D4D4D4"/>
  <path d="M87.34,61c-1.34,2.15-3.87,1.07-4.37,3.3c-0.5,2.22,4.66,3.01,7.52,0.36 c2.87-2.65,2.08-7.16,0.29-7.52C88.99,56.77,88.41,59.28,87.34,61z" fill="#D4D4D4"/>
  <path d="M79.26,36.46c1.18,1.32,5.91-0.08,7.48-4.79c1.57-4.71-1.53-7.75-3.62-6.68 c-2.09,1.07-0.6,3.34-1.1,4.81S76.95,33.88,79.26,36.46z" fill="#D4D4D4"/>
</svg>

<svg viewBox="0 0 128 128" xmlns="http://www.w3.org/2000/svg">
  <defs/>
  <path d="M83.49,99.04 C81.67,99.4 38.5,104.87 38.5,104.87 C38.5,104.87 37.59,112.52 38.86,115.07 C40.13,117.62 48.33,123.45 63.81,123.45 C79.29,123.45 87.85,118.53 89.13,115.62 C90.41,112.71 88.58,100.32 88.58,100.32 L83.49,99.04 Z" fill="#77A3AB"/>
  <path d="M34.07,42.84 L4.68,56.45 C4.68,56.45 7.03,84.14 25.41,99.3 C51.86,121.11 91.46,114.61 109.71,93.27 C126.37,73.79 123.32,47.95 123.32,47.95 L34.07,42.84 Z" fill="#A7D0D6"/>
  <path d="M3.95,50.5 C3.13,62.37 14.95,76.88 63.68,77.43 C114.5,78 132.51,52.97 121.13,39.89 C109.75,26.81 82.07,25.29 62.92,25.48 C43.77,25.67 5.28,31.23 3.95,50.5 Z" fill="#77A3AC"/>
  <path d="M10.36,55.34 C10.36,55.34 9.83,52.87 10.69,50.29 C11.55,47.71 13.09,46.96 13.31,46.13 C13.53,45.3 11.42,40.91 14.98,35.14 C18.54,29.37 20.85,30.59 21.83,29.37 C22.81,28.15 22.76,24.03 27.18,20.1 C31.6,16.17 35.65,16.54 35.65,16.54 C35.65,16.54 37.62,11.38 42.4,9.42 C47.18,7.46 52,8.67 52,8.67 C52,8.67 56.3,4.74 62.32,4.62 C68.34,4.5 70.06,6.22 71.41,6.34 C72.76,6.46 75.95,4.87 81.6,6.95 C87.25,9.04 87.33,12.21 88.6,12.72 C89.87,13.23 93.27,12.23 98.43,16.4 C103.59,20.57 102.74,22.49 103.47,23.28 C104.19,24.07 109.04,24.1 111.7,30.89 C113.66,35.89 112.61,39.56 112.81,40.1 C113.01,40.64 115.79,43.53 116.99,46.49 C118.1,49.25 118.59,53.12 118.59,53.12 C118.59,53.12 116.01,57.64 109.76,61.75 C103.15,66.1 28.92,66.29 24,64.72 C15.5,62.03 10.36,55.34 10.36,55.34 Z" fill="#CDCBC0"/>
  <path d="M18.47,47.85 C18.47,47.85 17.92,41.67 19.58,38.27 C21.91,33.48 26.46,32.99 26.46,32.99 C26.46,32.99 26.97,27.53 30.88,24.52 C35.67,20.84 37.51,21.82 39.11,20.34 C40.71,18.87 41.69,16.29 45.62,14.57 C49.55,12.85 52.74,13.96 54.09,13.34 C55.44,12.72 57.6,10.2 61.9,9.91 C67.43,9.54 67.79,11.68 70.96,12.02 C73.21,12.26 74.89,10.93 79.68,12.4 C84.47,13.87 84.63,16.77 86.15,17.76 C87.67,18.75 91.42,17.84 95.48,20.95 C99.16,23.77 99.12,26.38 100.15,27.46 C101.17,28.54 104.2,28.93 106.41,34.71 C108.25,39.52 106.89,40.94 107.39,42.45 C107.89,43.96 110.63,45.54 112.3,50.06 C114.39,55.71 113.77,58.66 113.77,58.66 C113.77,58.66 103.7,72.07 59,71.55 C26.82,71.18 15.28,60.01 15.28,60.01 C15.28,60.01 14.79,53.99 16.02,51.66 C17.25,49.33 18.47,47.85 18.47,47.85 Z" fill="#FFFFFF"/>
  <path d="M61.17,68.25 C62.16,70.48 66.06,70.85 69.34,67.18 C72.28,63.88 70.56,58.8 67.41,59.23 C64.54,59.62 65.48,62.6 64.11,63.74 C62.74,64.88 60.31,66.31 61.17,68.25 Z" fill="#D4D4D4"/>
  <path d="M76.5,54.64 C77.35,56.46 82.45,56.07 84.38,52.71 C86.31,49.34 86.03,44.42 83.23,44.47 C79.58,44.54 80.94,48.27 79.65,49.41 C78.36,50.55 75.07,51.56 76.5,54.64 Z" fill="#D4D4D4"/>
  <path d="M96.2,36.08 C94.1,36.76 95.2,39.52 94.34,41.38 C93.48,43.24 91.19,45.32 92.98,46.9 C94.77,48.48 98.85,45.9 99.43,41.96 C99.99,38.02 98.42,35.37 96.2,36.08 Z" fill="#D4D4D4"/>
  <path d="M87.34,61 C86,63.15 83.47,62.07 82.97,64.3 C82.47,66.52 87.63,67.31 90.49,64.66 C93.36,62.01 92.57,57.5 90.78,57.14 C88.99,56.77 88.41,59.28 87.34,61 Z" fill="#D4D4D4"/>
  <path d="M79.26,36.46 C80.44,37.78 85.17,36.38 86.74,31.67 C88.31,26.96 85.21,23.92 83.12,24.99 C81.03,26.06 82.52,28.33 82.02,29.8 C81.52,31.27 76.95,33.88 79.26,36.46 Z" fill="#D4D4D4"/>
</svg>
